libs/ui/packages/crypto-icons/src/svg/BAB.svg

<svg width="24" height="24" viewBox="0 0 24 24" fill="none">
<path d="M17.0775 10.9688H20.73L21 9.46875H17.4675C16.7711 9.49042 16.0961 9.71455 15.525 10.1138C15.315 9.36375 13.275 9.46875 13.275 9.46875L13.545 7.96875H12.75L12.48 9.46875H11.6475L11.88 7.96875H11.0175L10.7025 9.46875H9.81L9.3525 11.8088L8.745 9.51375H6.75L3 15.0263H6.09L6.405 13.5638H5.775L7.575 10.9313L8.25 13.5788H7.575L7.2825 15.0263H9.5775L9.39 16.0313H10.29L10.5 15.0263H11.25L11.0625 16.0313H12L12.1875 15.0263H13.3575C13.8955 14.9652 14.3935 14.7123 14.76 14.3138C15.197 14.756 15.7885 15.0114 16.41 15.0263H19.9425L20.175 13.5638H17.0025C14.82 13.5263 15.75 10.9538 17.0775 10.9688ZM13.11 13.5263H10.77L10.9575 12.8138H13.2075C13.7775 12.8513 13.59 13.5263 13.11 13.5263ZM13.4625 11.6063H11.1225L11.31 10.8938H13.56C14.13 10.9313 13.92 11.6363 13.4625 11.6363V11.6063Z" fill="#F19F13"/>
</svg>

<svg width="24" height="24" viewBox="0 0 24 24" fill="none"><path fill="#f19f13" d="M17.078 10.969h3.652l.27-1.5h-3.532a3.6 3.6 0 0 0-1.943.645c-.21-.75-2.25-.645-2.25-.645l.27-1.5h-.795l-.27 1.5h-.832l.232-1.5h-.863l-.314 1.5H9.81l-.458 2.34-.607-2.295H6.75L3 15.026h3.09l.315-1.462h-.63l1.8-2.633.675 2.648h-.675l-.293 1.447h2.296l-.188 1.005h.9l.21-1.005h.75l-.187 1.005H12l.188-1.005h1.17a2.25 2.25 0 0 0 1.402-.712 2.4 2.4 0 0 0 1.65.712h3.532l.233-1.462h-3.172c-2.183-.038-1.253-2.61.075-2.595m-3.968 2.557h-2.34l.188-.712h2.25c.57.037.382.712-.098.712m.353-1.92h-2.34l.187-.712h2.25c.57.037.36.742-.098.742z"/></svg>
